X:1
T:No 8 Cherubic hymn
T:Sergeij Rachmaninov
T:© Notasjon: Kolbjørn Andersen 2012
T:© Notasjon: Kolbjørn Andersen 2012
T:© Notasjon: Kolbjørn Andersen 2012
T:© Notasjon: Kolbjørn Andersen 2012
T:© Notasjon: Kolbjørn Andersen 2012
T:© Notasjon: Kolbjørn Andersen 2012
T:© Notasjon: Kolbjørn Andersen 2012
T:© Notasjon: Kolbjørn Andersen 2012
Z:© Notasjon: Kolbjørn Andersen 2012
%%score [ ( 1 2 ) ( 3 4 ) ( 5 6 ) ( 7 8 9 ) ]
L:1/8
Q:1/4=50
M:3/4
K:G
V:1 treble nm="Soprano" snm="S."
V:2 treble 
V:3 treble nm="Alto" snm="A."
V:4 treble 
V:5 treble-8 nm="Tenor" snm="T."
V:6 treble-8 
V:7 bass nm="Bass" snm="B."
V:8 bass 
V:9 bass 
V:1
"^Molto adagio"!pp! d4 d2 | d2 d2 d2 | d4 d2 | d4 d2 |!<(! d6 | d6!<)! |!>(! (d2 c2) B2!>)! | %7
w: |||||||
 D4 D2 |!pp! (!tenuto!B3 c) B2 | (B2 A2) B2 | A2 B2 A2 | (A2 G2) A2- | A2!<(! E2!<)! F2- | %13
w: |tay- * no|ob- * ra-|zu- yu- shche,|tay- * no,|* tay- no|
 F2 G2 A2 | (B2!>(! A2)!>)! G2 | A2 B2 c2 |!pp! d4 d2 | d6- | d2 z2 z2 | z6 | z6 | z6 |!pp! A4 c2 | %23
w: * ob- ra-|zu- * yu-|shche, ob- ra-|zu- yu-|shche,|||||tri- svia-|
 A2 (Bc) d2 | (A2 GA) B2 | F2 (EF) D2 | D4 D2 |!<(! G2 (FE) D2!<)! | c4 B2 |!>(! A2 B2!>)!!pp! c2 | %30
w: tu- yu * pesñ|pri- * * pe-|va- yu- * shche,|tri- svia-|tu- yu- * pesñ|pri- pe-|va- yu- shche,|
 d6 | d4 d2 | d6 | d4 d2 | (d2!<(! F2) G2!<)! | F2 G2 A2 | B6- | B2 c2 (Bc) |!>(! A4!>)! B2 | %39
w: fsia-|ko- ye|ni-|ñe zhi-|tey- * sko-|ye ot- lo-|zhim|* po- pe- *|che- ñi-|
 (A2 G4-) | G6- | G2 G2 G2 |!pp! G6 | (F4 G2) | !fermata!G6 || G6 | G6 || %47
w: ye, *||* po- pe-|che-|ñi- *|ye.|A-|miñ.|
[M:4/4]!ff![Q:1/2=90]"^Moderato   ( )" e3 e e2 e2 | e8 |!<(! (e2 f4) g2!<)! |!>(! B4 c2 c2!>)! | %51
w: Ya- ko da Tsa-|riã|fseh * po-|di- mem, Tsa-|
!f! !tenuto!d4 !tenuto!d3 e | !tenuto!d4 !tenuto!d3 e | !tenuto!d4 !tenuto!d3 e | d2 A2 G2 A2 | %55
w: riã fseh po-|di- mem, Tsa-|riã fseh po-|di- * mem, po-|
!<(! B4 B2 c2!<)! | (E2 F2) ^G2 A2 | (d2 c2) B2 A2 | (=f2 e2) (3(d2!<(! c2) B2!<)! |!ff! g4 g2 g2 | %60
w: di- mem, Tsa-|ria * fseh po-|di- * mem, po-|di- * mem, * Tsa-|ria fseh po-|
 g4 g2 f2 | (!>!f2 e2) !>!e2 d2 | (!>!d2 c2) (B2 A2) |!ff! !tenuto!d4 (!tenuto!d3 e) | %64
w: di- mem, po-|di- * mem, po-|di- * mem, *|An- gel- *|
 !tenuto!d4 (!tenuto!d3 e) |[Q:1/4=72]"^poco a poco ritardando e diminuendo" d4 (G2 A2) | %66
w: ski- mi, *|An- gel- *|
 B2 A2 B2 c2 | d6 G2 | A2 B2 B2 c2 |!mf! d4 G4 | (c2 B2)!>(! A4!>)! | %71
w: ski- * mi, ñe-|vi- di-|mo do- ri- no-|si- ma|zhin- * mi.|
!p![Q:1/4=48]"^piu lento" d2 c2 B2 A2 | d2 B2 A2 G2 | d2 A2 G2 F2 | E2 F2 G2 A2 | %75
w: Al- li- lu- ja,|al- li- lu- ja,|al- li- lu- ja,|al- li- lu- ja,|
!p![Q:1/4=46]"^rallentando e diminuendo" (G2 F4) c2 | (F2 E4) B2 | (E2 D4) E2- | E2 F4 G2- | %79
w: al- * li-|lu- * ja,|al- * li-|* lu- ja,|
 G2 A4 G2- | G2!>(! (A4 B2-!>)! | B2 c4 d2) |!pp! !fermata!d8 |] %83
w: * al- li-|* lu- *||ja.|
V:2
 d4 d2 | (c2 B2) A2 | (G2 F2) E2 | (A2 G2) F2 | (E2 D2 E2) | (F2 G2 A2) | (G2 A2) B2 | D4 D2 | x6 | %9
w: I- zhe|che- * ru-|vi- * mi,|che- * ru-|vi- * *|mi, * *|che- * ru-|vi- mi,||
 x6 | x6 | x6 | x6 | x6 | x6 | x6 | x6 | x6 | x6 | x6 | x6 | x6 | x6 | x6 | x6 | x6 | x6 | x6 | %28
w: |||||||||||||||||||
 x6 | x6 | (d2 c2 B2) | ((c2 B2)) A2 | (B2 A2 G2) | (A2 G2) F2 | (G2 F2) G2 | x6 | x6 | x6 | x6 | %39
w: |||||||||||
 x6 | x6 | x6 | x6 | x6 | x6 || x6 | x6 ||[M:4/4] c3 c c2 c2 | x8 | (c2 d4) g2 | x8 | %51
w: ||||||||||||
 !tenuto!d4 !tenuto!d3 c | !tenuto!d4 !tenuto!d3 c | !tenuto!d4 !tenuto!d3 c | ((d2 F2)) G2 A2 | %55
w: ||||
 x8 | x8 | x8 | x8 | e4 e2 e2 | e4 e2 d2 | (!>!d2 c2) !>!c2 B2 | (!>!B2 A2) (B2 A2) | %63
w: ||||||||
 !tenuto!d4 (!tenuto!d3 c) | !tenuto!d4 (!tenuto!d3 c) | x8 | ((B2 A2)) G2 A2 | B6 E2 | %68
w: |||||
 F2 G2 G2 A2 | B4 G4 | x8 | B2 G2 B2 A2 | B2 G2 A2 G2 | B2 A2 G2 F2 | E2 F2 G2 A2 | x8 | x8 | x8 | %78
w: ||||||||||
 x8 | x8 | x8 | x8 | x8 |] %83
w: |||||
V:3
!pp! (d2 c2) B2 | (A2 G2) F2 | (B2 A2) G2 | (F2 E2) D2 | (G2!<(! F2) E2 | (F2 G2)!<)! A2 | %6
w: I- * zhe|che- * ru-|vi- * mi,|che- * ru-|vi- * mi,|i- * zhe|
!>(! D4 D2 | (A2!>)! G2) F2 |!pp! (E2 D2) E2 | (!tenuto!D3 E) D2 | D4 D2 | C2 D2 C2 | %12
w: che- ru-|vi- * mi,|tay- * no,|tay- * no|ob- ra-|zu- yu- shche,|
!<(! D4!<)! D2 | D4 G2 |!>(! G4!>)! D2 | D2 D2 G2 |!pp! (G2 F2) E2 | F6- | F2!p! (D2 E2) | %19
w: tay- no|ob- ra-|zu- yu-|shche, ob- ra-|zu- * yu-|shche,|* i- *|
!<(! F2 F2!<)! G2 |!>(! (F2 E2) D2!>)! |!p! (E2!>(! F2)!>)! G2 |!pp! F4 G2 | F4 F2 | F2 (EF) (GE) | %25
w: zhi- vo- tvo-|ria- * shchey|Troy- * tse|tri- svia-|tu- yu|pesñ pri- * pe- *|
 D3 D D2 | (D2 CB,) A,2 |!<(! D4 D2!<)! | E2 F2 G2 |!>(! A2 G2!>)! A2 |!pp! (B2 A2 G2) | %31
w: va- yu- shche,|tri- * * svia-|tu- yu|pesñ pri- pe-|va- yu- shche,|fsia- * *|
 (A2 G2) F2 | (G2 F2 E2) | (F2 E2) D2 | G2!<(! D3 E!<)! | D2 D3 C |!<(! (B,2 G2 F2!<)! | %37
w: ko- * ye|ni- * *|ñe * zhi-|tey- sko- *|ye ot- lo-|zhim * *|
 =F2) E2 D2 | (C2!>(! E2) D2!>)! | (C2 B,4-) | B,2 C2 D2 | E2 F2 G2 |!pp! D6 | (C4 B,2) | %44
w: * po- pe-|che- * ñi-|ye, *|* ot- lo-|zhim po- pe-|che-|ñi- *|
 !fermata!B,6 || B,6 | B,6 ||[M:4/4]!ff! G3 G G2 G2 | G8 |!<(! (G2 c4) d2!<)! |!>(! G4 A2 A2!>)! | %51
w: ye.|A-|miñ.|Ya- ko da Tsa-|riã|fseh * po-|di- mem, Tsa-|
!f! (!tenuto!B2 F2) !tenuto!G2 !tenuto!A2 | (!tenuto!B2 F2) !tenuto!G2 !tenuto!A2 | %53
w: riã * fseh po-|di- * mem, Tsa-|
 (B2 F2) !tenuto!G2 !tenuto!A2 | (B2 A2) G2 F2 | !>!E4!<(! E2 F2!<)! | (^G2 A2) B2 c2 | %57
w: riã * fseh po-|di- * mem, po-|di- mem, Tsa-|ria * fseh po-|
 (d2 c2) B2 A2 | (^G2 A2)!<(! (3(B2 c2) d2!<)! |!ff! c4 c2 c2 | c4 c2 d2 | (!>!B2 c2) !>!A2 B2 | %62
w: di- * mem, po-|di- * mem, * Tsa-|ria fseh po-|di- mem, po-|di- * mem, po-|
 !>!G2 A2 (G3 A) |!ff! (!tenuto!B2 F2) (!tenuto!G2 A2) | (!tenuto!B2 F2) (!tenuto!G2 A2) | B4 D4 | %66
w: di- * mem, *|An- * gel- *|ski- * mi, *|An- gel-|
 D4 G2 G2 | (G2 F2) E2 D2 | D2 D2 D2 D2 |!mf! D4 B,4 | C4!>(! D4!>)! |!p! G2 E2 G2 C2 | %72
w: ski- mi, ñe-|vi- * * di-|mo do- ri- no-|si- ma|zhin- mi.|Al- li- lu- ja,|
 G2 D2 E2 B,2 | G2 D2 E2 D2 | D2 D2 D2 C2 |!p! C8 | B,8 | C8- | C8- | C8- | C2!>(! C2 D2 ^D2!>)! | %81
w: al- li- lu- ja,|al- li- lu- ja,|al- li- lu- ja,|al-|li-|lu-|||* ja, al- le-|
 (E2 F2 G2 (3!tenuto!A!tenuto!B!tenuto!c) |!pp! !fermata!B8 |] %83
w: lu- * * * * *|ja.|
V:4
 x6 | x6 | x6 | x6 | x6 | (D2 E2) F2 | (E2 F2) G2 | (A2 G2) F2 | x6 | x6 | x6 | x6 | D4 C2 | %13
 (B,2 D2) G2 | x6 | C2 B,2 G2 | x6 | x6 | F2 D4 | D2 D2 E2 | (D2 CB,) (CD) | D4 D2 | D4 E2 | %23
 D4 D2 | D2 D2 D2 | x6 | x6 | x6 | E2 D2 E2 | F2 G2 A2 | x6 | x6 | x6 | x6 | D2 ((D3 E)) | x6 | %36
 x6 | x6 | x6 | x6 | x6 | C2 D2 E2 | x6 | x6 | x6 || x6 | x6 ||[M:4/4] x8 | x8 | x8 | G4 G2 G2 | %51
 (!tenuto!G2 D2) !tenuto!E2 !tenuto!F2 | (!tenuto!G2 D2) !tenuto!E2 !tenuto!F2 | %53
 (G2 D2) !tenuto!E2 !tenuto!F2 | (G2 F2) G2 F2 | x8 | x8 | E4 E2 F2 | x8 | x8 | x8 | x8 | %62
 ((!>!G2 A2)) G4 | (!tenuto!G2 D2) (!tenuto!E2 F2) | (!tenuto!G2 D2) (!tenuto!E2 F2) | G4 (D2 C2) | %66
 (B,2 D2) G2 G2 | x8 | x8 | x8 | x8 | G2 E2 D2 G2 | G2 D2 C2 E2 | G2 C2 B,2 C2 | B,2 B,2 B,2 C2 | %75
 x8 | x8 | x8 | x8 | x8 | x8 | x8 | x8 |] %83
V:5
 z6 | z2!pp! z2 d2- | d4 d2 | d4 d2 |!<(! (d4- de) | d6!<)! |!>(! ((([Gd]2 [Fc]2))) [GB]2 | %7
w: |||||||
w: |||||||
 (A2!>)! B2) A2 |!pp! G2 F2 G2 | G2 F2 G2 | !tenuto!F3 G F2 | (E2 e2) E2 | F2!<(! G2!<)! A2 | %13
w: ||||||
w: ||||||
 B4 c2 |!>(! (d4!>)! e2 | f2 g2)!pp! c2 | d4 d2 | d6- | d2!p! (F2 B2) |!<(! A2 A2!<)! c2 | %20
w: tay- no|ob- *|* * ra-|zu- yu-|shche,|* i- *|zhi- vo- tvo-|
w: |||||||
!>(! A4!>)! A2 |!p!!>(! (B2 A2)!>)!!pp! G2 | (d2 c)B A2 | (d3 c) B2 | d2 (BA) G2 | A2 B2 F2 | %26
w: ria- shchey|Troy- * tse|tri- * * svia-|tu- * yu|pesñ pri- * pe-|va- yu- shche,|
w: ||||||
 ((F2 [EG]2)) [FA]2 |!<(! (([GB]2 [Ac]2)) [Bd]2!<)! | [ce]2 (([Bd][Ac])) [GB]2 | %29
w: tri- * svia-|tu- * yu-|pesñ pri- * pe-|
w: |||
!>(! ([FA]2 d3)!>)! c | B2!pp! z2 e2- | e2 d3 e | d2 d4- | d2 (d3 c) | B2 A2!<(! G2!<)! | %35
w: va- * *|* fsia-|* ko- ye|ni- *|ñe zhi- *|tey- sko- ye|
w: |||ni- ñe|||
 (A2 G2) F2 |!<(! (G2 B2 A2!<)! | _A2) G2 =F2 | (E2!>(! G2) ^F2!>)! | (E2 D2 G2- | G2) A2 B2 | %41
w: ot- * lo-|zhim * *|* po- pe-|che- * ñi-|ye, * *|* ot- lo-|
w: ||||||
 c2 d2 c2 |!pp! B6 | (A4 G2) | !fermata!G6 || D6 | D6 ||[M:4/4]!ff! e3 e e2 e2 | e8 | %49
w: zhim po- pe-|che-|ñi- *|ye.|A-|miñ.|Ya- ko da Tsa-|riã|
w: ||||||||
!<(! e2 f4 g2!<)! |!>(! d4 c2 c2!>)! |!f! !tenuto!d4 !tenuto!d3 [ce] | !tenuto!d4 !tenuto!d3 [ce] | %53
w: fseh * po-|di- mem, Tsa-|riã fseh (po)|* * (Tsa)-|
w: ||||
 !tenuto!d4 !tenuto!d3 [ce] | (!tenuto!d3 e) d2 d2 | e4 d2 c2 | !>!e4 e2 e2 | !tenuto!e4 e2 e2 | %58
w: * * (po)|* * * po-|di- mem, Tsa-|ria fseh po-|di- mem, po-|
w: |||||
 =f4 f2!<(! f2!<)! |!ff! g4 g2 g2 | g4 g2 f2 | (!>!f2 e2) !>!e2 d2 | !>!d4 (d2 c2) | %63
w: di- mem, Tsa-|ria fseh po-|di- mem, po-|di- * mem, po-|di- mem, *|
w: |||||
!ff! !tenuto!d4 (!tenuto!d3 e) | !tenuto!d4 (!tenuto!d3 e) | d4 (e2 f2) | g2 d2 B2 c2 | d6 d2 | %68
w: An- gel- *|ski- mi, *|An- gel- *|ski- * mi, ñe-|vi- di-|
w: |||||
 c2 B2 A2 G2 |!mf! F4 G4 | c8 |!p! B2 z2 z4 | z8 | z8 |!p! (G2 A2) (B2 c2) | (d2 c2) (B2 A2) | %76
w: mo do- ri- no-|si- ma|zhin-|mi.|||Al- * le- *|lu- * ja, *|
w: ||||||||
 (d2 B2) (A2 G2) | (d2 A2) (G2 F2) | E4 (D2 E2) | (F4 G2 A2 | B2!>(! c2-)!>)! c4- | c8 | %82
w: al- * le- *|lu- * ja, *|al- le- *|lu- * *|||
w: ||||||
!pp! !fermata!d8 |] %83
w: ja.|
w: |
V:6
 x6 | z2 z2 d2- | (d2 c2) B2 | ((c2 B2)) A2 | (B2 A2 G2) | (A2 G2) F2 | (E2 D2) D2 | D4 A2 | %8
w: |I-|* * zhe|che- * ru-|vi- * *|mi, * *|che- * ru-|vi- mi,|
 (G2 F2) G2 | (G2 F2) G2 | (F3 G) F2 | E4 E2 | F2 G2 A2 | x6 | x6 | x6 | x6 | x6 | x6 | x6 | x6 | %21
w: tay- * no,|tay- * no,|tay- * no,|ob- ra-|zu- yu- shche,|||||||||
 x6 | x6 | x6 | x6 | x6 | x6 | x6 | x6 | (F2 E2) D2 | D2 x4 | x6 | (d2 c3 d) | c2 (B3 c) | x6 | %35
w: ||||||||* * yu-|shche,|||||
 x6 | x6 | x6 | x6 | x6 | G2 G2 G2 | G2 G2 G2 | x6 | x6 | x6 || x6 | x6 ||[M:4/4] x8 | x8 | %49
w: ||||||||||||||
 ((e2 d4)) g2 | x8 | (d2 c2) !tenuto!B2 !tenuto!A2 | (d2 c2) !tenuto!B2 !tenuto!A2 | %53
w: ||* * * po-|di- * mem, Tsa-|
 (d2 c2) !tenuto!B2 !tenuto!A2 | (d2 c2) B2 A2 | (d2!<(! c2) B2 A2!<)! | ((d2 c2)) B2 A2 | %57
w: riã * fseh po-|di- * mem, *|||
 (B2 c2) d2 e2 | x8 | e4 e2 e2 | e4 e2 d2 | (!>!d2 c2) !>!c2 B2 | (!>!B2 A2) (B2 c2) | %63
w: ||||||
 (!tenuto!d2 c2) (!tenuto!B2 A2) | (!tenuto!d2 c2) (!tenuto!B2 A2) | x8 | ((g2 d2)) B2 A2 | B6 d2 | %68
w: |||||
 x8 | x8 | (E4!>(! F4)!>)! | G2 z2 z4 | x8 | x8 | x8 | x8 | x8 | x8 | x8 | x8 | x8 | x8 | %82
w: ||||||||||||||
 !fermata!B8 |] %83
w: |
V:7
 z6 | z6 | z2 z2!pp! D,2- | D,4 D,2 | D,4 D,2 | D,4 C,2 |!>(! (B,,2 A,,2) G,,2 | %7
w: ||||||che- * ru-|
w: |||||||
 (F,,2 G,,)!>)!B,, D,2 |!pp! (E,2 B,,2) E,2 | (B,,2 D,2) B,,2 | D,2 B,,2 D,2 | %11
w: vi- * mi, *|tay- * no|ob- * ra-|zu- yu- shche,|
w: ||||
 (!tenuto!A,,3 B,,) A,,2 | (C,2!<(! B,,2)!<)! A,,2 | (G,2 F,2) E,2 | D2!>(! C2!>)! B,2 | %15
w: tay- * no,|tay- * no|ob- * ra-|zu- yu- shche,|
w: ||||
 (A,2 G,F,) E,2 |!pp! D,3 D, D,2- | D,2!p!!<(! (A,,2 B,,2)!<)! | %18
w: ob- * * ra-|zu- yu- shche.|* i- *|
w: |||
 !tenuto!C,2!>(! (B,,A,,)!>)! G,,2 |!<(! (!tenuto!C,3 B,,)!<)! A,,2 | %20
w: zhi- vo- * tvo-|ria- * shchey|
w: ||
!>(! (!tenuto!C,2 A,,)G,,!>)! F,,2 |!p! (G,,2!>(! A,,2)!>)! B,,2 |!pp! D,,6 | D,,6 | D,,4 D,,2 | %25
w: Troy- * * tse|Troy- * tse|tri-|svia-|tu- yu-|
w: |||||
 D,,2 (G,,!<(!A,,) (B,,C,)!<)! |!>(! D,4 D,2!>)! |!<(! D,6!<)! | D,4 D,2 | D,3 D, D,2 | D,6- | %31
w: pesñ pri- * pe- *|va- yu-|shche,|pri- pe-|va- yu- shche,|fsia-|
w: ||||||
 D,6 | D,4 D,2 | (D,E,) D,2 D,E, | D,2 C,2!<(! B,,2!<)! | (C,2 B,,2) A,,2 | G,,6 | C,4 D,2 | %38
w: |ko- ye|ni- * ñe zhi- *|tey- sko- ye|ot- * lo-|zhim|po- pe-|
w: |||||||
!>(! A,,4 D,,2!>)! | (G,,4!<(! G,2!<)! |!>(! F,2) E,2 D,2!>)! | C,2 B,,2 A,,2 |!pp! D,6 | D,6 | %44
w: che- ñi-|ye, *|* ot- lo-|zhim po- pe-|che-|ñi-|
w: ||||||
 !fermata!D,6 || G,,6 | G,,6 ||[M:4/4]!ff! C3 C C2 C2 | C8 |!<(! (C2 A,4) B,2!<)! | %50
w: ye.|A-|miñ.|Ya- ko da Tsa-|riã|fseh * po-|
w: ||||||
!>(! (G,2 F,2) E,2 A,2!>)! |!f! (!tenuto!D,3 =E,) !tenuto!D,4 | (!tenuto!D,3 E,) !tenuto!D,4 | %53
w: di- * mem, po-|di- * mem,|fseh * po-|
w: |||
 (!tenuto!D,3 E,) !tenuto!D,4 | !>!D8 | !>!^G,4!<(! (G,2 A,2)!<)! | E,4 E,2 F,2 | %57
w: di- * mem,|fseh,|fseh po- *|di- mem, Tsa-|
w: ||||
 (^G,2 A,2) B,2 C2 | (D2 C2) (3(B,2!<(! A,2) =G,2!<)! |!ff! C4 C2 C2 | (C2 B,2) A,2 B,2 | %61
w: ria * fseh po-|di- * mem, * Tsa-|ria fseh po-|di- * mem, po-|
w: ||||
 (!>!G,2 A,2) !>!F,2 G,2 | (!>!E,2 F,2) (G,2 A,2) |!ff! (!tenuto!D2 C2) (!tenuto!B,2 A,2) | %64
w: di- * mem, po-|di- * mem, *|An- * gel- *|
w: |||
 (!tenuto!D2 C2) (!tenuto!B,2 A,2) | (D2 C2) (B,2 A,2) | (G,2 F,2) E,2 D,2 | (E,2 D,2) C,2 B,,2 | %68
w: ski- * mi, *|An- * gel- *|ski- * mi, ñe-|vi- * * di-|
w: ||||
 A,,2 G,,2 F,,2 E,,2 |!mf! B,,4 E,4 | A,,4!>(! D,4!>)! |!p! z4!p! D,4- | (D,4 E,4-) | %73
w: mo do- ri- no-|si- ma|zhin- mi.|Al-||
w: |||||
 E,2 (F,2 G,2 A,2) | (B,2 A,2) (G,F, E,2) |!p! (D,6 E,2) | (D,6 E,2) | D,8- | D,8- | D,8- | %80
w: * le- * *|||||||
w: |lu- * ja, * *||||||
!>(! D,8-!>)! | D,8 |!pp! !fermata!D,8 |] %83
w: |||
w: |||
V:8
 x6 | x6 | z2 z2 G,,2- | G,,4 D,2 | (D,2!<(! C,2) B,,2 | (C,2 B,,2)!<)! A,,2 | x6 | x6 | x6 | x6 | %10
w: ||I-|* zhe|che- * ru-|vi- * mi,|||||
 x6 | x6 | x6 | x6 | x6 | x6 | x6 | x6 | x6 | x6 | x6 | x6 | x6 | x6 | x6 | x6 | x6 | x6 | x6 | %29
w: |||||||||||||||||||
 x6 | G,,6- | G,,6 | G,,4 G,,2 | G,,2 G,,2 ((D,E,)) | x6 | x6 | x6 | x6 | x6 | x6 | x6 | x6 | x6 | %43
w: ||||||||||||||
 (D,4 G,,2) | G,,6 || x6 | x6 ||[M:4/4] x8 | x8 | x8 | x8 | x8 | x8 | x8 | x8 | x8 | x8 | x8 | x8 | %59
w: ||||||||||||||||
 x8 | x8 | x8 | x8 | (!tenuto!D,3 E,) !tenuto!D,4 | (!tenuto!D,3 E,) !tenuto!D,4 | x8 | x8 | x8 | %68
w: |||||||||
 x8 | x8 | x8 | D,8 | D,8 | D,8 | D,8 | G,,8 | G,,8 | G,,8- | G,,8- | G,,8- | G,,8- | G,,8 | %82
w: |||||||al-|le-|lu-|||||
 !fermata!G,,8 |] %83
w: ja.|
V:9
 x6 | x6 | x6 | x6 | x6 | x6 | x6 | x6 | x6 | x6 | x6 | x6 | x6 | x6 | x6 | x6 | x6 | x6 | x6 | %19
w: |||||||||||||||||||
 x6 | x6 | x6 | x6 | x6 | x6 | x6 | x6 | x6 | x6 | x6 | x6 | x6 | x6 | x6 | x6 | x6 | x6 | x6 | %38
w: |||||||||||||||||||
 x6 | x6 | x6 | x6 | x6 | x6 | x6 || x6 | x6 ||[M:4/4] x8 | x8 | x8 | x8 | x8 | x8 | x8 | x8 | x8 | %56
w: ||||||||||||||||||
 x8 | x8 | x8 | x8 | x8 | x8 | x8 | x8 | x8 | x8 | x8 | x8 | x8 | x8 | x8 | G,,8 | G,,8 | G,,8 | %74
w: |||||||||||||||Al-|le-|lu-|
 G,,8 | x8 | x8 | x8 | x8 | x8 | x8 | x8 | x8 |] %83
w: ja,|||||||||

